icons/arrows-out.svg

<svg xmlns="http://www.w3.org/2000/svg" width="24" height="24" viewBox="0 0 24 24">
  <path d="M9.38710056,13.2097046 C9.77939176,12.9046797 10.3466228,12.9324093 10.7071068,13.2928932 C11.0976311,13.6834175 11.0976311,14.3165825 10.7071068,14.7071068 L10.7071068,14.7071068 L5.415,20 L9,20 L9.11662113,20.0067277 C9.61395981,20.0644928 10,20.4871642 10,21 C10,21.5522847 9.55228475,22 9,22 L9,22 L3,22 C2.99359377,22 2.9872016,21.9999398 2.98163795,21.9998325 C2.95966259,21.9994314 2.93769794,21.9983103 2.91578241,21.9964691 L2.91578241,21.9964691 L2.88337887,21.9932723 C2.8708523,21.9918173 2.85839634,21.9901309 2.84601538,21.9882174 L2.84601538,21.9882174 L2.82356849,21.9844021 L2.82356849,21.9844021 L2.80118228,21.9802356 C2.77683175,21.9753235 2.75280168,21.9695267 2.72912705,21.9628803 L2.70815633,21.9566726 L2.70815633,21.9566726 L2.68826359,21.9504533 C2.66820232,21.9438775 2.6484208,21.9366843 2.62866398,21.9287745 L2.62866398,21.9287745 L2.57690085,21.9063462 C2.5561086,21.8966234 2.53570605,21.8862061 2.5159379,21.8753288 L2.5159379,21.8753288 L2.47933981,21.8539326 C2.45372505,21.8382813 2.42886931,21.8215099 2.40469339,21.8036654 L2.40469339,21.8036654 L2.38519363,21.7887351 L2.349,21.757 L2.362,21.769 L2.34743396,21.757792 L2.34743396,21.757792 L2.29289322,21.7071068 L2.329,21.739 L2.28900038,21.7032086 L2.28900038,21.7032086 L2.21292769,21.6170223 L2.21292769,21.6170223 L2.19631351,21.5951593 C2.17849009,21.5711307 2.1617187,21.546275 2.14599545,21.5207088 C2.13860692,21.5086131 2.13149883,21.4963944 2.12487577,21.484277 C2.11379392,21.4642939 2.10337664,21.4438914 2.09367336,21.4232215 L2.09367336,21.4232215 L2.07110396,21.3710585 C2.06331574,21.3515792 2.05612249,21.3317977 2.04973809,21.3121425 C2.04472872,21.2968513 2.04009773,21.2814633 2.03572097,21.2658396 C2.02983363,21.2444365 2.0246398,21.2227461 2.02024007,21.2007258 C2.01670217,21.1833753 2.01362808,21.165949 2.01101934,21.1489612 L2.01101934,21.1489612 L2.003,21.081 L2,21 L2,15 L2.00672773,14.8833789 C2.06449284,14.3860402 2.48716416,14 3,14 C3.55228475,14 4,14.4477153 4,15 L4,15 L4,18.585 L9.29289322,13.2928932 Z M14.6128994,13.2097046 L14.7071068,13.2928932 L20,18.585 L20,15 C20,14.4477153 20.4477153,14 21,14 C21.5128358,14 21.9355072,14.3860402 21.9932723,14.8833789 L22,15 L22,21 L21.9998325,21.0183621 L21.9985589,21.0538333 L21.9985589,21.0538333 L21.997,21.075 L21.9889807,21.1489612 L21.9889807,21.1489612 C21.9863719,21.165949 21.9832978,21.1833753 21.9797599,21.2007258 C21.9753602,21.2227461 21.9701664,21.2444365 21.964279,21.2658396 C21.9599023,21.2814633 21.9552713,21.2968513 21.9502619,21.3121425 C21.9438775,21.3317977 21.9366843,21.3515792 21.928896,21.3710585 L21.9063266,21.4232215 L21.9063266,21.4232215 C21.8966234,21.4438914 21.8862061,21.4642939 21.8751242,21.484277 C21.8685012,21.4963944 21.8613931,21.5086131 21.8540045,21.5207088 C21.8382813,21.546275 21.8215099,21.5711307 21.8036865,21.5951593 L21.7870723,21.6170223 L21.7870723,21.6170223 L21.7109996,21.7032086 L21.7109996,21.7032086 L21.67,21.739 L21.7071068,21.7071068 L21.652566,21.757792 L21.652566,21.757792 L21.637,21.769 L21.625449,21.7803112 L21.625449,21.7803112 L21.6148064,21.7887351 L21.5953066,21.8036654 L21.5953066,21.8036654 C21.5711307,21.8215099 21.546275,21.8382813 21.5206602,21.8539326 L21.4840621,21.8753288 L21.4840621,21.8753288 C21.4642939,21.8862061 21.4438914,21.8966234 21.4230991,21.9063462 L21.371336,21.9287745 L21.371336,21.9287745 C21.3515792,21.9366843 21.3317977,21.9438775 21.3117364,21.9504533 L21.2918437,21.9566726 L21.2918437,21.9566726 L21.2708729,21.9628803 C21.2471983,21.9695267 21.2231682,21.9753235 21.1988177,21.9802356 L21.1764315,21.9844021 L21.1764315,21.9844021 L21.1539846,21.9882174 C21.1416037,21.9901309 21.1291477,21.9918173 21.1166211,21.9932723 L21.0842176,21.9964691 C21.0623021,21.9983103 21.0403374,21.9994314 21.0183621,21.9998325 C21.0127984,21.9999398 21.0064062,22 21,22 L15,22 C14.4477153,22 14,21.5522847 14,21 C14,20.4871642 14.3860402,20.0644928 14.8833789,20.0067277 L15,20 L18.585,20 L13.2928932,14.7071068 C12.9023689,14.3165825 12.9023689,13.6834175 13.2928932,13.2928932 C13.6533772,12.9324093 14.2206082,12.9046797 14.6128994,13.2097046 Z M9,2 C9.55228475,2 10,2.44771525 10,3 C10,3.51283584 9.61395981,3.93550716 9.11662113,3.99327227 L9,4 L5.415,4 L10.7071068,9.29289322 C11.0976311,9.68341751 11.0976311,10.3165825 10.7071068,10.7071068 C10.3466228,11.0675907 9.77939176,11.0953203 9.38710056,10.7902954 L9.29289322,10.7071068 L4,5.415 L4,9 C4,9.55228475 3.55228475,10 3,10 C2.48716416,10 2.06449284,9.61395981 2.00672773,9.11662113 L2,9 L2.00016755,2.98163795 L2.001,2.946 L2.001,2.981 L2.003,2.918 L2.01101934,2.85103878 L2.01101934,2.85103878 C2.01362808,2.83405099 2.01670217,2.81662474 2.02024007,2.79927424 C2.0246398,2.77725392 2.02983363,2.75556352 2.03572097,2.73416039 C2.04009773,2.71853672 2.04472872,2.70314866 2.04973809,2.68785748 C2.05612249,2.66820232 2.06331574,2.6484208 2.07110396,2.62894148 L2.09367336,2.57677845 L2.09367336,2.57677845 C2.10337664,2.5561086 2.11379392,2.53570605 2.12487577,2.51572305 C2.13149883,2.50360556 2.13860692,2.49138689 2.14599545,2.47929125 C2.1617187,2.45372505 2.17849009,2.42886931 2.19631351,2.4048407 L2.21292769,2.38297765 L2.21292769,2.38297765 L2.28900038,2.29679135 L2.28900038,2.29679135 L2.349,2.242 L2.29289322,2.29289322 L2.34743396,2.24220802 L2.34743396,2.24220802 L2.362,2.23 L2.37455101,2.21968877 L2.37455101,2.21968877 L2.38519363,2.21126487 L2.40469339,2.19633458 L2.40469339,2.19633458 C2.42886931,2.17849009 2.45372505,2.1617187 2.47933981,2.14606743 L2.5159379,2.12467117 L2.5159379,2.12467117 C2.53570605,2.11379392 2.5561086,2.10337664 2.57690085,2.09365378 L2.62866398,2.07122549 L2.62866398,2.07122549 C2.6484208,2.06331574 2.66820232,2.05612249 2.68826359,2.04954668 L2.70815633,2.0433274 L2.70815633,2.0433274 L2.72912705,2.03711974 C2.75280168,2.03047332 2.77683175,2.02467654 2.80118228,2.01976438 L2.82356849,2.01559786 L2.82356849,2.01559786 L2.84601538,2.01178265 C2.85839634,2.00986911 2.8708523,2.00818267 2.88337887,2.00672773 L2.91578241,2.00353089 C2.93769794,2.00168973 2.95966259,2.00056861 2.98163795,2.00016755 L9,2 Z M21.0183621,2.00016755 C21.0403374,2.00056861 21.0623021,2.00168973 21.0842176,2.00353089 L21.0842176,2.00353089 L21.1166211,2.00672773 C21.1291477,2.00818267 21.1416037,2.00986911 21.1539846,2.01178265 L21.1539846,2.01178265 L21.1764315,2.01559786 L21.1764315,2.01559786 L21.1988177,2.01976438 C21.2231682,2.02467654 21.2471983,2.03047332 21.2708729,2.03711974 L21.2918437,2.0433274 L21.2918437,2.0433274 L21.3117364,2.04954668 C21.3317977,2.05612249 21.3515792,2.06331574 21.371336,2.07122549 L21.371336,2.07122549 L21.4230991,2.09365378 C21.4438914,2.10337664 21.4642939,2.11379392 21.4840621,2.12467117 L21.4840621,2.12467117 L21.5206602,2.14606743 C21.546275,2.1617187 21.5711307,2.17849009 21.5953066,2.19633458 L21.5953066,2.19633458 L21.6148064,2.21126487 L21.625449,2.21968877 L21.625449,2.21968877 L21.637,2.23 L21.623,2.219 L21.65,2.242 L21.7109996,2.29679135 L21.7109996,2.29679135 L21.7870723,2.38297765 L21.7870723,2.38297765 L21.8036865,2.4048407 C21.8215099,2.42886931 21.8382813,2.45372505 21.8540045,2.47929125 C21.8613931,2.49138689 21.8685012,2.50360556 21.8751242,2.51572305 C21.8862061,2.53570605 21.8966234,2.5561086 21.9063266,2.57677845 L21.9063266,2.57677845 L21.928896,2.62894148 C21.9366843,2.6484208 21.9438775,2.66820232 21.9502619,2.68785748 C21.9552713,2.70314866 21.9599023,2.71853672 21.964279,2.73416039 C21.9701664,2.75556352 21.9753602,2.77725392 21.9797599,2.79927424 C21.9832978,2.81662474 21.9863719,2.83405099 21.9889807,2.85103878 L21.9889807,2.85103878 L21.9960336,2.91074993 L21.9960336,2.91074993 L21.996,2.919 L21.997,2.921 L21.997,2.924 L21.998,2.946 L21.999,2.981 L22,3 L22,9 L21.9932723,9.11662113 C21.9355072,9.61395981 21.5128358,10 21,10 C20.4477153,10 20,9.55228475 20,9 L20,9 L20,5.415 L14.7071068,10.7071068 L14.6128994,10.7902954 C14.2206082,11.0953203 13.6533772,11.0675907 13.2928932,10.7071068 C12.9023689,10.3165825 12.9023689,9.68341751 13.2928932,9.29289322 L13.2928932,9.29289322 L18.585,4 L15,4 L14.8833789,3.99327227 C14.3860402,3.93550716 14,3.51283584 14,3 C14,2.44771525 14.4477153,2 15,2 L15,2 Z"/>
</svg>

<svg xmlns="http://www.w3.org/2000/svg" viewBox="0 0 24 24">
  <path d="M9.39 13.21a1 1 0 0 1 1.32 1.5L5.4 20h3.71A1 1 0 0 1 9 22H3a.98.98 0 0 1-.08 0h-.04a1 1 0 0 1-.03-.01h-.03l-.02-.01a1 1 0 0 1-.07-.02H2.7l-.02-.01a.99.99 0 0 1-.06-.02l-.05-.02a1.04 1.04 0 0 1-.06-.03l-.04-.03a1.03 1.03 0 0 1-.08-.05l-.01-.01-.04-.03h.01-.01l-.06-.05.04.03-.04-.04-.08-.08-.01-.02a1.04 1.04 0 0 1-.1-.18l-.03-.05a.95.95 0 0 1-.06-.22v-6.27A1 1 0 0 1 4 15v3.59l5.3-5.3zm5.22 0 .1.08L20 18.6V15a1 1 0 0 1 2-.12v6.19l-.01.08a1.08 1.08 0 0 1-.06.22l-.02.05a1.02 1.02 0 0 1-.1.18l-.02.02-.08.08-.04.04.04-.03-.06.05h-.01l-.01.02h-.02l-.01.02-.08.05-.04.03-.06.03-.05.02a.99.99 0 0 1-.06.02h-.02l-.02.01a1 1 0 0 1-.07.02h-.05a1 1 0 0 1-.03.01h-.04A1 1 0 0 1 21 22h-6a1 1 0 0 1-.12-2h3.71l-5.3-5.3a1 1 0 0 1 1.32-1.49zM9 2a1 1 0 0 1 .12 2h-3.7l5.29 5.3a1 1 0 0 1-1.32 1.49l-.1-.08L4 5.4V9a1 1 0 0 1-2 .12V2.95v.03-.06l.01-.07a1.08 1.08 0 0 1 .06-.22l.02-.05a1.02 1.02 0 0 1 .1-.18l.02-.02.08-.08.06-.06-.06.05.06-.05.01-.01.01-.01h.02l.01-.02.08-.05.04-.03.06-.03.05-.02.06-.02h.02l.02-.01a1 1 0 0 1 .07-.02h.05A1 1 0 0 1 2.88 2h.04a1 1 0 0 1 .06 0H9zm12.02 0a1 1 0 0 1 .06 0h.04a1 1 0 0 1 .03.01h.03l.02.01a1 1 0 0 1 .07.02h.02l.02.01.06.02.05.02.06.03.04.03.08.05.01.01.02.01v.01-.01l.02.02.06.06.08.08.01.02a1.04 1.04 0 0 1 .1.18l.03.05a.95.95 0 0 1 .06.22v.13L22 3v6.12A1 1 0 0 1 20 9V5.42l-5.3 5.29-.09.08a1 1 0 0 1-1.32-1.5L18.6 4h-3.71A1 1 0 0 1 15 2z"/>
</svg>
